X:1089
T:Golden Stud, The
R:reel
C:Maurice Lennon
Z:id:hn-reel-1089
M:C|
L:1/8
K:Em
~E3G ~F3A | ~G3B ABcA | BAGB AGFA | GEFD EDB,D |
~E3G ~F3A | ~G3B ABcA | BAGB AGFA |1 GEFD E3B, :|2 GEFD E2AB ||
|: c2AB cBAc | ~B3c BAGB | A2FG AGFA | GEFD E2AB |
c2AB cBAc | B2GA BAGB | A2FG AGFA |1 GEFD E2AB :|2 GEFD E3B, ||

